assets/img/proximamenteProyectos.svg

<svg xmlns="http://www.w3.org/2000/svg" width="671" height="445" fill="none"><g clip-path="url(#a)" opacity=".6"><path fill="#292726" d="M0 0h670.29v445H0z"/><path fill="#fff" d="M366.987 456.091q-18.708 0-31.847-13.14Q322 429.812 322 411.132V166.989q0-18.65 13.14-31.819 13.14-13.14 31.847-13.14h38.528V66.354q0-46.518 32.432-78.922Q470.351-45 516.869-45t78.95 32.432q32.431 32.43 32.403 78.922v55.676h38.557q18.651 0 31.819 13.14 13.14 13.14 13.14 31.847v244.115q0 18.652-13.14 31.819-13.14 13.14-31.819 13.14zm0-27.838h299.792q7.488 0 12.304-4.816t4.816-12.305V166.989q0-7.488-4.816-12.304t-12.304-4.816h-299.82q-7.488 0-12.305 4.816-4.815 4.816-4.816 12.332v244.115q0 7.489 4.816 12.305t12.333 4.816m149.882-97.435q17.622 0 29.676-12.081 12.081-12.054 12.081-29.676t-12.081-29.676-29.676-12.082q-17.593-.027-29.676 12.082-12.082 12.054-12.082 29.676t12.082 29.676q12.054 12.081 29.676 12.081M433.354 122.03h167.03V66.354q0-34.8-24.359-59.157-24.359-24.36-59.156-24.359-34.798 0-59.157 24.359t-24.358 59.157z"/></g><path fill="#292726" d="M67.787 200v-65.677h28.43q8.818 0 15.199 2.909 6.38 2.814 9.851 8.162t3.472 12.76q0 7.318-3.472 12.667-3.471 5.347-9.851 8.256-6.38 2.815-15.2 2.815H76.232l6.755-6.849V200zm15.2-23.268-6.755-7.225h19.14q7.037 0 10.508-3.002 3.472-3.002 3.472-8.351 0-5.44-3.472-8.444-3.471-3.002-10.508-3.002h-19.14l6.755-7.225zM134.466 200v-50.477h13.98v14.261l-1.97-4.128q2.252-5.349 7.224-8.069 4.973-2.815 12.104-2.815v13.511a17 17 0 0 0-1.689-.094 13 13 0 0 0-1.595-.094q-6.005 0-9.758 3.472-3.659 3.377-3.659 10.602V200zm63.693.751q-8.068 0-14.355-3.378-6.192-3.378-9.852-9.195-3.565-5.91-3.565-13.417 0-7.6 3.565-13.417 3.66-5.91 9.852-9.194 6.287-3.378 14.355-3.378 7.976 0 14.261 3.378 6.287 3.284 9.852 9.101t3.565 13.51q0 7.506-3.565 13.417-3.565 5.817-9.852 9.195-6.285 3.378-14.261 3.378m0-12.01q3.659 0 6.568-1.689t4.597-4.785q1.689-3.189 1.689-7.506 0-4.41-1.689-7.506t-4.597-4.785-6.568-1.689q-3.659 0-6.568 1.689t-4.691 4.785q-1.689 3.096-1.689 7.506 0 4.317 1.689 7.506 1.783 3.096 4.691 4.785t6.568 1.689m-8.726-45.692 12.667-13.511h15.762l-16.982 13.511zM227.683 200l22.612-29.648-.282 8.068-21.673-28.897h16.419l13.698 18.858-6.192.188 14.167-19.046h15.575l-21.767 28.616v-7.881L282.758 200h-16.607l-14.355-20.078 6.098.844L243.633 200zm62.18 0v-50.477h14.636V200zm7.318-57.514q-4.035 0-6.568-2.346t-2.533-5.817 2.533-5.817 6.568-2.346 6.568 2.252q2.533 2.158 2.533 5.63 0 3.659-2.533 6.098-2.44 2.346-6.568 2.346m85.547 6.286q6.005 0 10.602 2.439 4.691 2.346 7.319 7.319 2.72 4.878 2.72 12.572V200h-14.636v-26.646q0-6.099-2.533-9.007-2.534-2.909-7.131-2.909-3.19 0-5.723 1.501-2.534 1.408-3.941 4.316t-1.407 7.412V200h-14.637v-26.646q0-6.099-2.533-9.007-2.44-2.909-7.037-2.909-3.19 0-5.723 1.501-2.534 1.408-3.941 4.316t-1.407 7.412V200h-14.637v-50.477h13.98v13.792l-2.627-4.035q2.627-5.16 7.412-7.787 4.88-2.721 11.071-2.721 6.943 0 12.104 3.565 5.253 3.472 6.943 10.696l-5.161-1.407q2.534-5.911 8.069-9.383 5.63-3.471 12.854-3.471M447.451 200v-9.852l-.939-2.157v-17.639q0-4.692-2.908-7.319-2.815-2.627-8.726-2.627-4.034 0-7.975 1.314-3.846 1.22-6.568 3.377l-5.254-10.226q4.129-2.909 9.946-4.504a44.5 44.5 0 0 1 11.822-1.595q11.54 0 17.92 5.442t6.38 16.982V200zm-15.388.751q-5.91 0-10.133-1.971-4.221-2.064-6.473-5.535t-2.252-7.788q0-4.503 2.158-7.881 2.252-3.378 7.037-5.254 4.785-1.97 12.478-1.97h13.417v8.538h-11.822q-5.16 0-7.13 1.688-1.877 1.69-1.877 4.222 0 2.815 2.158 4.504 2.252 1.595 6.099 1.595 3.659 0 6.567-1.689 2.909-1.782 4.222-5.16l2.252 6.755q-1.594 4.88-5.817 7.412-4.222 2.534-10.884 2.534M131.4 262.772q6.005 0 10.602 2.439 4.692 2.346 7.319 7.319 2.721 4.878 2.721 12.572V314h-14.637v-26.646q0-6.099-2.533-9.007-2.534-2.909-7.131-2.909-3.19 0-5.723 1.501-2.534 1.408-3.941 4.316t-1.407 7.412V314h-14.637v-26.646q0-6.099-2.533-9.007-2.44-2.909-7.037-2.909-3.19 0-5.723 1.501-2.533 1.408-3.94 4.316t-1.408 7.412V314H66.755v-50.477h13.98v13.792l-2.627-4.035q2.627-5.16 7.412-7.787 4.88-2.721 11.071-2.721 6.944 0 12.104 3.565 5.254 3.472 6.943 10.696l-5.161-1.407q2.534-5.911 8.069-9.383 5.63-3.471 12.854-3.471m59.178 51.979q-8.632 0-15.199-3.378-6.474-3.378-10.039-9.195-3.566-5.91-3.566-13.417 0-7.6 3.472-13.417 3.565-5.91 9.664-9.194 6.098-3.378 13.792-3.378 7.411 0 13.323 3.19 6.005 3.096 9.476 9.007 3.472 5.817 3.472 13.98 0 .845-.094 1.97-.094 1.032-.188 1.971H173.69v-8.538h33.308l-5.63 2.533q0-3.94-1.595-6.849t-4.41-4.504q-2.814-1.689-6.567-1.689t-6.662 1.689q-2.814 1.595-4.41 4.597-1.595 2.909-1.595 6.943v2.252q0 4.128 1.783 7.319 1.876 3.096 5.16 4.785 3.378 1.595 7.882 1.595 4.034 0 7.036-1.22 3.097-1.22 5.63-3.659l7.787 8.444q-3.472 3.94-8.725 6.098-5.255 2.065-12.104 2.065m64.82-51.979q6.004 0 10.696 2.439 4.785 2.346 7.506 7.319 2.72 4.878 2.72 12.572V314h-14.636v-26.646q0-6.099-2.721-9.007-2.626-2.909-7.506-2.909-3.471 0-6.286 1.501-2.721 1.409-4.316 4.41-1.501 3.002-1.501 7.694V314h-14.637v-50.477h13.98v13.979l-2.627-4.222q2.721-5.066 7.787-7.787 5.067-2.721 11.541-2.721m54.831 51.979q-8.913 0-13.886-4.504-4.973-4.598-4.973-13.604v-44.285h14.637v44.097q0 3.19 1.689 4.973 1.689 1.688 4.597 1.688 3.472 0 5.911-1.876l3.941 10.321q-2.251 1.594-5.442 2.439-3.096.75-6.474.751m-26.646-38.844v-11.259h34.996v11.259zm70.271 38.844q-8.632 0-15.199-3.378-6.474-3.378-10.039-9.195-3.566-5.91-3.566-13.417 0-7.6 3.472-13.417 3.565-5.91 9.664-9.194 6.099-3.378 13.792-3.378 7.411 0 13.323 3.19 6.005 3.096 9.476 9.007 3.472 5.817 3.472 13.98 0 .845-.094 1.97-.094 1.032-.188 1.971h-41.001v-8.538h33.308l-5.63 2.533q0-3.94-1.595-6.849t-4.41-4.504q-2.814-1.689-6.567-1.689t-6.662 1.689q-2.814 1.595-4.409 4.597-1.596 2.909-1.595 6.943v2.252q0 4.128 1.782 7.319 1.876 3.096 5.16 4.785 3.378 1.595 7.882 1.595 4.034 0 7.037-1.22 3.096-1.22 5.629-3.659l7.787 8.444q-3.47 3.94-8.725 6.098-5.254 2.065-12.104 2.065"/><defs><clipPath id="a"><path fill="#fff" d="M0 0h670.29v445H0z"/></clipPath></defs></svg>

<svg width="671" height="445" viewBox="0 0 671 445" fill="none" xmlns="http://www.w3.org/2000/svg">
<g opacity="0.6" clip-path="url(#clip0_1102_3402)">
<rect width="670.29" height="445" fill="#292726"/>
<path d="M366.987 456.091C354.515 456.091 343.9 451.711 335.14 442.951C326.38 434.192 322 423.585 322 411.132V166.989C322 154.555 326.38 143.949 335.14 135.17C343.9 126.41 354.515 122.03 366.987 122.03H405.515V66.3536C405.515 35.3416 416.326 9.03434 437.947 -12.5683C459.55 -34.1894 485.857 -45 516.869 -45C547.881 -45 574.197 -34.1894 595.819 -12.5683C617.44 9.05289 628.241 35.3602 628.222 66.3536V122.03H666.779C679.213 122.03 689.82 126.41 698.598 135.17C707.358 143.93 711.738 154.546 711.738 167.017V411.132C711.738 423.567 707.358 434.173 698.598 442.951C689.838 451.711 679.232 456.091 666.779 456.091H366.987ZM366.987 428.253H666.779C671.771 428.253 675.872 426.647 679.083 423.437C682.294 420.226 683.899 416.125 683.899 411.132V166.989C683.899 161.997 682.294 157.896 679.083 154.685C675.872 151.474 671.771 149.869 666.779 149.869H366.959C361.967 149.869 357.865 151.474 354.654 154.685C351.444 157.896 349.838 162.006 349.838 167.017V411.132C349.838 416.125 351.444 420.226 354.654 423.437C357.865 426.647 361.976 428.253 366.987 428.253ZM516.869 330.818C528.617 330.818 538.509 326.791 546.545 318.737C554.599 310.701 558.626 300.809 558.626 289.061C558.626 277.313 554.599 267.421 546.545 259.385C538.49 251.349 528.598 247.322 516.869 247.303C505.14 247.285 495.248 251.312 487.193 259.385C479.138 267.421 475.111 277.313 475.111 289.061C475.111 300.809 479.138 310.701 487.193 318.737C495.229 326.791 505.121 330.818 516.869 330.818ZM433.354 122.03H600.384V66.3536C600.384 43.1549 592.264 23.4361 576.025 7.197C559.786 -9.04206 540.067 -17.1616 516.869 -17.1616C493.67 -17.1616 473.951 -9.04206 457.712 7.197C441.473 23.4361 433.354 43.1549 433.354 66.3536V122.03Z" fill="white"/>
</g>
<path d="M67.7874 200V134.323H96.2161C102.096 134.323 107.162 135.293 111.416 137.232C115.669 139.108 118.953 141.829 121.267 145.394C123.582 148.96 124.739 153.213 124.739 158.154C124.739 163.033 123.582 167.255 121.267 170.821C118.953 174.386 115.669 177.138 111.416 179.077C107.162 180.954 102.096 181.892 96.2161 181.892H76.2316L82.9869 175.043V200H67.7874ZM82.9869 176.732L76.2316 169.507H95.3717C100.063 169.507 103.566 168.506 105.88 166.505C108.194 164.503 109.352 161.72 109.352 158.154C109.352 154.527 108.194 151.712 105.88 149.71C103.566 147.709 100.063 146.708 95.3717 146.708H76.2316L82.9869 139.483V176.732ZM134.466 200V149.523H148.446V163.784L146.476 159.656C147.977 156.09 150.385 153.401 153.7 151.587C157.015 149.71 161.05 148.772 165.804 148.772V162.283C165.178 162.22 164.615 162.189 164.115 162.189C163.614 162.126 163.083 162.095 162.52 162.095C158.517 162.095 155.264 163.252 152.762 165.567C150.323 167.818 149.103 171.352 149.103 176.169V200H134.466ZM198.159 200.751C192.78 200.751 187.995 199.625 183.804 197.373C179.676 195.121 176.392 192.056 173.952 188.178C171.576 184.238 170.387 179.765 170.387 174.761C170.387 169.695 171.576 165.222 173.952 161.344C176.392 157.404 179.676 154.339 183.804 152.15C187.995 149.898 192.78 148.772 198.159 148.772C203.476 148.772 208.23 149.898 212.42 152.15C216.611 154.339 219.895 157.373 222.272 161.251C224.649 165.129 225.837 169.632 225.837 174.761C225.837 179.765 224.649 184.238 222.272 188.178C219.895 192.056 216.611 195.121 212.42 197.373C208.23 199.625 203.476 200.751 198.159 200.751ZM198.159 188.741C200.598 188.741 202.788 188.178 204.727 187.052C206.666 185.926 208.198 184.331 209.324 182.267C210.45 180.141 211.013 177.639 211.013 174.761C211.013 171.821 210.45 169.319 209.324 167.255C208.198 165.191 206.666 163.596 204.727 162.47C202.788 161.344 200.598 160.781 198.159 160.781C195.72 160.781 193.53 161.344 191.591 162.47C189.652 163.596 188.089 165.191 186.9 167.255C185.774 169.319 185.211 171.821 185.211 174.761C185.211 177.639 185.774 180.141 186.9 182.267C188.089 184.331 189.652 185.926 191.591 187.052C193.53 188.178 195.72 188.741 198.159 188.741ZM189.433 143.049L202.1 129.538H217.862L200.88 143.049H189.433ZM227.683 200L250.295 170.352L250.013 178.42L228.34 149.523H244.759L258.457 168.381L252.265 168.569L266.432 149.523H282.007L260.24 178.139V170.258L282.758 200H266.151L251.796 179.922L257.894 180.766L243.633 200H227.683ZM289.863 200V149.523H304.499V200H289.863ZM297.181 142.486C294.491 142.486 292.302 141.704 290.613 140.14C288.924 138.576 288.08 136.637 288.08 134.323C288.08 132.009 288.924 130.07 290.613 128.506C292.302 126.942 294.491 126.16 297.181 126.16C299.871 126.16 302.06 126.911 303.749 128.412C305.437 129.851 306.282 131.727 306.282 134.042C306.282 136.481 305.437 138.514 303.749 140.14C302.122 141.704 299.933 142.486 297.181 142.486ZM382.728 148.772C386.731 148.772 390.265 149.585 393.33 151.211C396.458 152.775 398.897 155.215 400.649 158.53C402.462 161.782 403.369 165.973 403.369 171.102V200H388.733V173.354C388.733 169.288 387.888 166.286 386.2 164.347C384.511 162.408 382.134 161.438 379.069 161.438C376.942 161.438 375.035 161.939 373.346 162.939C371.657 163.878 370.343 165.316 369.405 167.255C368.467 169.194 367.998 171.665 367.998 174.667V200H353.361V173.354C353.361 169.288 352.517 166.286 350.828 164.347C349.202 162.408 346.856 161.438 343.791 161.438C341.664 161.438 339.757 161.939 338.068 162.939C336.379 163.878 335.065 165.316 334.127 167.255C333.189 169.194 332.72 171.665 332.72 174.667V200H318.083V149.523H332.063V163.315L329.436 159.28C331.187 155.84 333.658 153.244 336.848 151.493C340.101 149.679 343.791 148.772 347.919 148.772C352.548 148.772 356.582 149.96 360.023 152.337C363.525 154.652 365.84 158.217 366.966 163.033L361.805 161.626C363.494 157.685 366.184 154.558 369.874 152.243C373.627 149.929 377.912 148.772 382.728 148.772ZM447.451 200V190.148L446.512 187.991V170.352C446.512 167.224 445.543 164.785 443.604 163.033C441.727 161.282 438.819 160.406 434.878 160.406C432.189 160.406 429.53 160.844 426.903 161.72C424.339 162.533 422.149 163.659 420.335 165.097L415.081 154.871C417.833 152.932 421.149 151.43 425.027 150.367C428.905 149.304 432.845 148.772 436.849 148.772C444.542 148.772 450.516 150.586 454.769 154.214C459.022 157.842 461.149 163.502 461.149 171.196V200H447.451ZM432.063 200.751C428.123 200.751 424.745 200.094 421.93 198.78C419.116 197.404 416.958 195.559 415.457 193.245C413.955 190.93 413.205 188.335 413.205 185.457C413.205 182.455 413.924 179.828 415.363 177.576C416.864 175.324 419.21 173.573 422.4 172.322C425.59 171.008 429.749 170.352 434.878 170.352H448.295V178.89H436.473C433.033 178.89 430.656 179.453 429.343 180.578C428.092 181.704 427.466 183.112 427.466 184.8C427.466 186.677 428.185 188.178 429.624 189.304C431.125 190.367 433.158 190.899 435.723 190.899C438.162 190.899 440.351 190.336 442.29 189.21C444.229 188.022 445.637 186.302 446.512 184.05L448.764 190.805C447.701 194.058 445.762 196.529 442.947 198.217C440.132 199.906 436.505 200.751 432.063 200.751ZM131.4 262.772C135.403 262.772 138.937 263.585 142.002 265.211C145.13 266.775 147.569 269.215 149.321 272.53C151.135 275.782 152.042 279.973 152.042 285.102V314H137.405V287.354C137.405 283.288 136.561 280.286 134.872 278.347C133.183 276.408 130.806 275.438 127.741 275.438C125.614 275.438 123.707 275.939 122.018 276.939C120.329 277.878 119.015 279.316 118.077 281.255C117.139 283.194 116.67 285.665 116.67 288.667V314H102.033V287.354C102.033 283.288 101.189 280.286 99.5 278.347C97.8737 276.408 95.5281 275.438 92.4632 275.438C90.3365 275.438 88.4287 275.939 86.7399 276.939C85.0511 277.878 83.7375 279.316 82.7993 281.255C81.861 283.194 81.3919 285.665 81.3919 288.667V314H66.7553V263.523H80.7351V277.315L78.1081 273.28C79.8595 269.84 82.3302 267.244 85.5202 265.493C88.7728 263.679 92.4632 262.772 96.5914 262.772C101.22 262.772 105.255 263.96 108.695 266.337C112.198 268.652 114.512 272.217 115.638 277.033L110.477 275.626C112.166 271.685 114.856 268.558 118.546 266.243C122.299 263.929 126.584 262.772 131.4 262.772ZM190.578 314.751C184.824 314.751 179.757 313.625 175.379 311.373C171.063 309.121 167.717 306.056 165.34 302.178C162.963 298.238 161.774 293.765 161.774 288.761C161.774 283.695 162.931 279.222 165.246 275.344C167.623 271.404 170.844 268.339 174.91 266.15C178.975 263.898 183.573 262.772 188.702 262.772C193.643 262.772 198.084 263.835 202.025 265.962C206.028 268.026 209.187 271.029 211.501 274.969C213.815 278.847 214.973 283.507 214.973 288.949C214.973 289.512 214.941 290.169 214.879 290.919C214.816 291.607 214.754 292.264 214.691 292.89H173.69V284.352H206.998L201.368 286.885C201.368 284.258 200.836 281.975 199.773 280.036C198.71 278.097 197.24 276.595 195.363 275.532C193.487 274.406 191.298 273.843 188.796 273.843C186.294 273.843 184.073 274.406 182.134 275.532C180.258 276.595 178.788 278.128 177.724 280.129C176.661 282.068 176.129 284.383 176.129 287.072V289.324C176.129 292.076 176.724 294.516 177.912 296.643C179.163 298.707 180.883 300.302 183.072 301.428C185.324 302.491 187.951 303.023 190.954 303.023C193.643 303.023 195.989 302.616 197.99 301.803C200.055 300.99 201.931 299.77 203.62 298.144L211.407 306.588C209.093 309.215 206.184 311.248 202.682 312.686C199.179 314.063 195.144 314.751 190.578 314.751ZM255.398 262.772C259.401 262.772 262.966 263.585 266.094 265.211C269.284 266.775 271.786 269.215 273.6 272.53C275.414 275.782 276.32 279.973 276.32 285.102V314H261.684V287.354C261.684 283.288 260.777 280.286 258.963 278.347C257.212 276.408 254.71 275.438 251.457 275.438C249.143 275.438 247.047 275.939 245.171 276.939C243.357 277.878 241.918 279.348 240.855 281.349C239.854 283.351 239.354 285.915 239.354 289.043V314H224.717V263.523H238.697V277.502L236.07 273.28C237.884 269.903 240.48 267.307 243.857 265.493C247.235 263.679 251.082 262.772 255.398 262.772ZM310.229 314.751C304.287 314.751 299.658 313.249 296.343 310.247C293.028 307.182 291.37 302.647 291.37 296.643V252.358H306.007V296.455C306.007 298.582 306.57 300.239 307.696 301.428C308.822 302.553 310.354 303.116 312.293 303.116C314.608 303.116 316.578 302.491 318.204 301.24L322.145 311.561C320.644 312.624 318.83 313.437 316.703 314C314.639 314.5 312.481 314.751 310.229 314.751ZM283.583 275.907V264.648H318.579V275.907H283.583ZM353.854 314.751C348.1 314.751 343.033 313.625 338.655 311.373C334.339 309.121 330.993 306.056 328.616 302.178C326.239 298.238 325.05 293.765 325.05 288.761C325.05 283.695 326.208 279.222 328.522 275.344C330.899 271.404 334.12 268.339 338.186 266.15C342.252 263.898 346.849 262.772 351.978 262.772C356.919 262.772 361.36 263.835 365.301 265.962C369.304 268.026 372.463 271.029 374.777 274.969C377.092 278.847 378.249 283.507 378.249 288.949C378.249 289.512 378.217 290.169 378.155 290.919C378.092 291.607 378.03 292.264 377.967 292.89H336.966V284.352H370.274L364.644 286.885C364.644 284.258 364.113 281.975 363.049 280.036C361.986 278.097 360.516 276.595 358.639 275.532C356.763 274.406 354.574 273.843 352.072 273.843C349.57 273.843 347.349 274.406 345.41 275.532C343.534 276.595 342.064 278.128 341.001 280.129C339.937 282.068 339.406 284.383 339.406 287.072V289.324C339.406 292.076 340 294.516 341.188 296.643C342.439 298.707 344.159 300.302 346.348 301.428C348.6 302.491 351.227 303.023 354.23 303.023C356.919 303.023 359.265 302.616 361.267 301.803C363.331 300.99 365.207 299.77 366.896 298.144L374.683 306.588C372.369 309.215 369.461 311.248 365.958 312.686C362.455 314.063 358.421 314.751 353.854 314.751Z" fill="#292726"/>
<defs>
<clipPath id="clip0_1102_3402">
<rect width="670.29" height="445" fill="white"/>
</clipPath>
</defs>
</svg>
